X: 90
T:Good Luck and More of It (#286)
M:4/4
L:1/8
S:Patrick Stack, Chicago
R:Reel
K:C
A2 (3cBA EAce|dcBA GBEB|A2 (3cBA EAce|ecBd cABG|
A2 (3cBA EAce|dcBA GBEB|A2 (3cBA cea^f|ecBd cA A2||
aece ^fece|dcBA GBEB|aece ^fece|ecBd cA A2|
aece ^fece|dcBA GBEB|ag^fe ceaf|ecBd cABG||

